assets/img/braze_icons/sun.svg

<svg fill="none" height="24" viewBox="0 0 24 24" width="24" xmlns="http://www.w3.org/2000/svg"><g fill="#801ed7"><path d="m13 2c0-.55228-.4477-1-1-1s-1 .44772-1 1v2c0 .55228.4477 1 1 1s1-.44772 1-1z"/><path d="m13 20c0-.5523-.4477-1-1-1s-1 .4477-1 1v2c0 .5523.4477 1 1 1s1-.4477 1-1z"/><path d="m1 12c0-.5523.44772-1 1-1h2c.55228 0 1 .4477 1 1s-.44772 1-1 1h-2c-.55228 0-1-.4477-1-1z"/><path d="m5.60701 4.1928c-.39052-.39053-1.02369-.39053-1.41421 0-.39053.39052-.39053 1.02369 0 1.41421l1.41421 1.41421c.39052.39053 1.02369.39053 1.41421 0 .39053-.39052.39053-1.02369 0-1.41421z"/><path d="m19.8072 4.1928c.3906.39052.3906 1.02369 0 1.41421l-1.4142 1.41421c-.3905.39053-1.0237.39053-1.4142 0-.3905-.39052-.3905-1.02369 0-1.41421l1.4142-1.41421c.3905-.39053 1.0237-.39053 1.4142 0z"/><path d="m7.02122 18.397c.39053-.3905.39053-1.0236 0-1.4142-.39052-.3905-1.02369-.3905-1.41421 0l-1.41421 1.4142c-.39053.3906-.39053 1.0237 0 1.4143.39052.3905 1.02369.3905 1.41421 0z"/><path d="m16.9788 16.9828c.3905-.3905 1.0237-.3905 1.4142 0l1.4142 1.4142c.3906.3906.3906 1.0237 0 1.4143-.3905.3905-1.0237.3905-1.4142 0l-1.4142-1.4143c-.3905-.3905-.3905-1.0236 0-1.4142z"/><path d="m20 11c-.5523 0-1 .4477-1 1s.4477 1 1 1h2c.5523 0 1-.4477 1-1s-.4477-1-1-1z"/><path d="m12 6c-3.31371 0-6 2.68629-6 6 0 3.3137 2.68629 6 6 6 3.3137 0 6-2.6863 6-6 0-3.31371-2.6863-6-6-6z"/></g></svg>

<svg width="24" height="24" viewBox="0 0 24 24" fill="none" xmlns="http://www.w3.org/2000/svg">
<path d="M13 2C13 1.44772 12.5523 1 12 1C11.4477 1 11 1.44772 11 2V4C11 4.55228 11.4477 5 12 5C12.5523 5 13 4.55228 13 4V2Z" fill="#801ED7"/>
<path d="M13 20C13 19.4477 12.5523 19 12 19C11.4477 19 11 19.4477 11 20V22C11 22.5523 11.4477 23 12 23C12.5523 23 13 22.5523 13 22V20Z" fill="#801ED7"/>
<path d="M1 12C1 11.4477 1.44772 11 2 11H4C4.55228 11 5 11.4477 5 12C5 12.5523 4.55228 13 4 13H2C1.44772 13 1 12.5523 1 12Z" fill="#801ED7"/>
<path d="M5.60701 4.1928C5.21649 3.80227 4.58332 3.80227 4.1928 4.1928C3.80227 4.58332 3.80227 5.21649 4.1928 5.60701L5.60701 7.02122C5.99753 7.41175 6.6307 7.41175 7.02122 7.02122C7.41175 6.6307 7.41175 5.99753 7.02122 5.60701L5.60701 4.1928Z" fill="#801ED7"/>
<path d="M19.8072 4.1928C20.1978 4.58332 20.1978 5.21649 19.8072 5.60701L18.393 7.02122C18.0025 7.41175 17.3693 7.41175 16.9788 7.02122C16.5883 6.6307 16.5883 5.99753 16.9788 5.60701L18.393 4.1928C18.7835 3.80227 19.4167 3.80227 19.8072 4.1928Z" fill="#801ED7"/>
<path d="M7.02122 18.397C7.41175 18.0065 7.41175 17.3734 7.02122 16.9828C6.6307 16.5923 5.99753 16.5923 5.60701 16.9828L4.1928 18.397C3.80227 18.7876 3.80227 19.4207 4.1928 19.8113C4.58332 20.2018 5.21649 20.2018 5.60701 19.8113L7.02122 18.397Z" fill="#801ED7"/>
<path d="M16.9788 16.9828C17.3693 16.5923 18.0025 16.5923 18.393 16.9828L19.8072 18.397C20.1978 18.7876 20.1978 19.4207 19.8072 19.8113C19.4167 20.2018 18.7835 20.2018 18.393 19.8113L16.9788 18.397C16.5883 18.0065 16.5883 17.3734 16.9788 16.9828Z" fill="#801ED7"/>
<path d="M20 11C19.4477 11 19 11.4477 19 12C19 12.5523 19.4477 13 20 13H22C22.5523 13 23 12.5523 23 12C23 11.4477 22.5523 11 22 11H20Z" fill="#801ED7"/>
<path d="M12 6C8.68629 6 6 8.68629 6 12C6 15.3137 8.68629 18 12 18C15.3137 18 18 15.3137 18 12C18 8.68629 15.3137 6 12 6Z" fill="#801ED7"/>
</svg>
